wallet_core/revocation_portal/assets/images/index_illustration.svg

<svg width="800" height="214" viewBox="0 0 800 214" fill="none" xmlns="http://www.w3.org/2000/svg">
<g clip-path="url(#clip0_44890_1187135)">
<path d="M0 16C0 7.16344 7.16344 0 16 0H784C792.837 0 800 7.16344 800 16V198C800 206.837 792.837 214 784 214H16C7.16343 214 0 206.837 0 198V16Z" fill="#F5F4F9"/>
<path d="M410.62 90.9138L400.889 82.6338L400.886 82.0118H399.668C398.952 82.0028 398.267 82.5498 398.267 83.3768V87.0718H388.966C388.02 87.0718 387.253 87.8388 387.253 88.7848V95.8828C387.253 96.8288 388.02 97.5958 388.966 97.5958H398.267V101.289C398.267 102.106 398.934 102.661 399.64 102.667H400.927L400.962 101.971L410.622 93.7518C411.495 93.0078 411.495 91.6578 410.62 90.9138Z" fill="#152A62" stroke="#152A62" stroke-miterlimit="10" stroke-linejoin="round"/>
<path d="M411.879 90.9145L401.79 82.3305C400.897 81.5705 399.524 82.2055 399.524 83.3775V87.0725H390.223C389.277 87.0725 388.51 87.8395 388.51 88.7855V95.8835C388.51 96.8295 389.277 97.5965 390.223 97.5965H399.524V101.29C399.524 102.462 400.897 103.097 401.79 102.337L411.879 93.7525C412.754 93.0085 412.754 91.6585 411.879 90.9145Z" fill="#B49CFB" stroke="#152A62" stroke-miterlimit="10" stroke-linejoin="round"/>
<path d="M423.918 156.174L425.687 153.862L426.247 154.14C426.235 153.087 426.341 151.993 426.613 150.862L451.908 45.7045C453.902 37.4151 461.578 30.6957 470.192 30.6957H515.912C516.498 30.6957 517.066 30.733 517.621 30.7937L519.249 28.3633L525.479 34.5935C525.483 34.597 525.485 34.5994 525.488 34.6029L525.617 34.7301L525.614 34.7418C528.32 37.4956 529.477 41.5942 528.374 46.1797L503.08 151.337C501.235 159.007 493.277 165.226 485.305 165.226H438.179C434.491 165.226 431.46 163.884 429.435 161.694L423.918 156.174Z" fill="#E3E0FD" stroke="#152A62" stroke-miterlimit="10"/>
<path d="M495.685 161.737C492.621 163.9 488.968 165.223 485.306 165.223H438.18C434.492 165.223 431.461 163.882 429.437 161.692L423.919 156.173L425.688 153.862L426.247 154.14C426.235 153.107 426.34 152.033 426.602 150.924L487.81 153.861L495.685 161.737Z" fill="#F5F4F9" stroke="#152A62" stroke-miterlimit="10"/>
<path d="M432.012 159.055H479.139C487.109 159.055 495.067 152.837 496.913 145.167L522.207 40.0089C524.201 31.7194 518.834 25 510.22 25H465.424C456.809 25 448.209 31.7194 446.215 40.0089L420.921 145.167C419.075 152.837 424.041 159.055 432.012 159.055Z" fill="#152A62" stroke="#152A62" stroke-miterlimit="10"/>
<path d="M480.388 154.652C485.714 154.652 491.051 150.479 492.285 145.351L517.58 40.1935C518.263 37.3545 517.751 34.6648 516.138 32.6184C514.504 30.544 511.958 29.4023 508.969 29.4023H502.812C501.019 29.4023 499.289 30.7565 498.874 32.4854C498.299 34.8738 495.745 36.7451 493.059 36.7451H476.418C475.156 36.7451 474.13 36.3248 473.528 35.5602C472.976 34.8598 472.82 33.9247 473.078 32.8543C473.291 31.9717 473.118 31.0915 472.604 30.439C472.085 29.7794 471.257 29.4023 470.332 29.4023H464.174C458.205 29.4023 452.223 34.0765 450.841 39.8234L425.547 144.981C424.935 147.524 425.395 149.934 426.84 151.769C428.305 153.629 430.585 154.653 433.261 154.653H480.388V154.652Z" fill="white" stroke="#152A62" stroke-miterlimit="10"/>
<path d="M522.176 48.8945L525.038 51.6285L523.848 56.6622L520.985 53.9282L522.176 48.8945Z" stroke="#152A62" stroke-miterlimit="10" stroke-linejoin="round"/>
<path d="M520.148 57.168L523.011 59.9019L521.82 64.9356L518.958 62.2017L520.148 57.168Z" stroke="#152A62" stroke-miterlimit="10" stroke-linejoin="round"/>
<path d="M461.253 185.709C483.393 185.709 501.341 183.984 501.341 181.855C501.341 179.726 483.393 178 461.253 178C439.114 178 421.166 179.726 421.166 181.855C421.166 183.984 439.114 185.709 461.253 185.709Z" fill="#E3E0FD"/>
<path d="M274.449 156.174L276.217 153.862L276.778 154.14C276.766 153.087 276.872 151.993 277.144 150.862L302.439 45.7045C304.433 37.4151 312.109 30.6957 320.723 30.6957H366.443C367.029 30.6957 367.597 30.733 368.152 30.7937L369.78 28.3633L376.01 34.5935C376.013 34.597 376.016 34.5994 376.019 34.6029L376.148 34.7301L376.145 34.7418C378.851 37.4956 380.008 41.5942 378.905 46.1797L353.61 151.337C351.766 159.007 343.808 165.226 335.836 165.226H288.709C285.022 165.226 281.991 163.884 279.966 161.694L274.449 156.174Z" fill="#E3E0FD" stroke="#152A62" stroke-miterlimit="10"/>
<path d="M346.216 161.737C343.152 163.9 339.499 165.223 335.837 165.223H288.71C285.023 165.223 281.992 163.882 279.968 161.692L274.45 156.173L276.218 153.862L276.777 154.14C276.766 153.107 276.871 152.033 277.132 150.924L338.341 153.861L346.216 161.737Z" fill="#F5F4F9" stroke="#152A62" stroke-miterlimit="10"/>
<path d="M282.543 159.055H329.669C337.64 159.055 345.598 152.837 347.444 145.167L372.738 40.0089C374.732 31.7194 369.365 25 360.751 25H315.955C307.34 25 298.74 31.7194 296.746 40.0089L271.452 145.167C269.606 152.837 274.572 159.055 282.543 159.055Z" fill="#152A62" stroke="#152A62" stroke-miterlimit="10"/>
<path d="M330.919 154.652C336.245 154.652 341.582 150.479 342.816 145.351L368.11 40.1935C368.793 37.3545 368.282 34.6648 366.669 32.6184C365.034 30.544 362.488 29.4023 359.5 29.4023H353.343C351.55 29.4023 349.82 30.7565 349.404 32.4854C348.83 34.8738 346.276 36.7451 343.59 36.7451H326.949C325.687 36.7451 324.661 36.3248 324.059 35.5602C323.506 34.8598 323.351 33.9247 323.609 32.8543C323.822 31.9717 323.649 31.0915 323.135 30.439C322.616 29.7794 321.788 29.4023 320.862 29.4023H314.704C308.736 29.4023 302.754 34.0765 301.372 39.8234L276.077 144.981C275.466 147.524 275.926 149.934 277.371 151.769C278.836 153.629 281.116 154.653 283.791 154.653H330.919V154.652Z" fill="white" stroke="#152A62" stroke-miterlimit="10"/>
<path d="M372.707 48.8945L375.569 51.6285L374.379 56.6622L371.516 53.9282L372.707 48.8945Z" stroke="#152A62" stroke-miterlimit="10" stroke-linejoin="round"/>
<path d="M370.679 57.168L373.541 59.9019L372.351 64.9356L369.488 62.2017L370.679 57.168Z" stroke="#152A62" stroke-miterlimit="10" stroke-linejoin="round"/>
<path d="M311.784 185.709C333.924 185.709 351.872 183.984 351.872 181.855C351.872 179.726 333.924 178 311.784 178C289.645 178 271.697 179.726 271.697 181.855C271.697 183.984 289.645 185.709 311.784 185.709Z" fill="#E3E0FD"/>
<path d="M274.382 156.174L276.151 153.862L276.711 154.14C276.7 153.087 276.806 151.993 277.078 150.862L302.372 45.7045C304.366 37.4151 312.043 30.6957 320.657 30.6957H366.377C366.963 30.6957 367.53 30.733 368.086 30.7937L369.713 28.3633L375.943 34.5935C375.947 34.597 375.949 34.5994 375.953 34.6029L376.081 34.7301L376.079 34.7418C378.785 37.4956 379.942 41.5942 378.838 46.1797L353.544 151.337C351.699 159.007 343.742 165.226 335.77 165.226H288.643C284.955 165.226 281.925 163.884 279.899 161.694L274.382 156.174Z" fill="#E3E0FD" stroke="#152A62" stroke-miterlimit="10"/>
<path d="M346.15 161.737C343.085 163.9 339.433 165.223 335.771 165.223H288.644C284.956 165.223 281.926 163.882 279.901 161.692L274.383 156.173L276.152 153.862L276.711 154.14C276.699 153.107 276.804 152.033 277.066 150.924L338.275 153.861L346.15 161.737Z" fill="#F5F4F9" stroke="#152A62" stroke-miterlimit="10"/>
<path d="M282.476 159.055H329.603C337.574 159.055 345.532 152.837 347.377 145.167L372.672 40.0089C374.666 31.7194 369.298 25 360.684 25H315.889C307.274 25 298.674 31.7194 296.68 40.0089L271.385 145.167C269.539 152.837 274.505 159.055 282.476 159.055Z" fill="#152A62" stroke="#152A62" stroke-miterlimit="10"/>
<path d="M330.853 154.652C336.178 154.652 341.516 150.479 342.749 145.351L368.044 40.1935C368.727 37.3545 368.216 34.6648 366.602 32.6184C364.968 30.544 362.422 29.4023 359.433 29.4023H353.277C351.484 29.4023 349.754 30.7565 349.338 32.4854C348.764 34.8738 346.21 36.7451 343.523 36.7451H326.883C325.621 36.7451 324.595 36.3248 323.992 35.5602C323.44 34.8598 323.285 33.9247 323.543 32.8543C323.755 31.9717 323.582 31.0915 323.069 30.439C322.549 29.7794 321.722 29.4023 320.796 29.4023H314.638C308.669 29.4023 302.688 34.0765 301.306 39.8234L276.011 144.981C275.399 147.524 275.859 149.934 277.304 151.769C278.769 153.629 281.049 154.653 283.725 154.653H330.853V154.652Z" fill="white" stroke="#152A62" stroke-miterlimit="10"/>
<path d="M372.64 48.8945L375.503 51.6285L374.312 56.6622L371.45 53.9282L372.64 48.8945Z" stroke="#152A62" stroke-miterlimit="10" stroke-linejoin="round"/>
<path d="M370.613 57.168L373.475 59.9019L372.284 64.9356L369.422 62.2017L370.613 57.168Z" stroke="#152A62" stroke-miterlimit="10" stroke-linejoin="round"/>
<path d="M311.718 185.709C333.857 185.709 351.805 183.984 351.805 181.855C351.805 179.726 333.857 178 311.718 178C289.578 178 271.63 179.726 271.63 181.855C271.63 183.984 289.578 185.709 311.718 185.709Z" fill="#E3E0FD"/>
<path d="M349.673 73.1331H304.415C301.54 73.1331 299.713 70.9479 300.336 68.2525L305.501 45.8806C306.122 43.1852 308.957 41 311.831 41H357.09C359.965 41 361.791 43.1852 361.169 45.8806L356.004 68.2525C355.382 70.9479 352.548 73.1331 349.673 73.1331Z" fill="#89C8FF" stroke="#152A62" stroke-miterlimit="10"/>
<path d="M337.893 51.3183H312.497C311.763 51.3183 311.297 50.7597 311.456 50.0717L311.785 48.645C311.944 47.9562 312.668 47.3984 313.402 47.3984H338.798C339.533 47.3984 339.999 47.957 339.84 48.645L339.511 50.0717C339.352 50.7605 338.628 51.3183 337.893 51.3183Z" fill="#152A62"/>
<path d="M329.122 57.1554H310.794C310.256 57.1554 309.914 56.7467 310.031 56.2422L310.177 55.6066C310.294 55.1021 310.824 54.6934 311.362 54.6934H329.69C330.228 54.6934 330.57 55.1021 330.454 55.6066L330.307 56.2422C330.191 56.7467 329.66 57.1554 329.122 57.1554Z" fill="#152A62"/>
<path d="M313.877 66.8292H308.562C308.024 66.8292 307.682 66.4205 307.799 65.916L307.945 65.2804C308.062 64.7759 308.592 64.3672 309.13 64.3672H314.445C314.983 64.3672 315.325 64.7759 315.209 65.2804L315.062 65.916C314.946 66.4205 314.415 66.8292 313.877 66.8292Z" fill="#152A62"/>
<rect width="9.24633" height="9.24633" rx="2" transform="matrix(1 0 -0.224951 0.97437 346.114 48.3711)" fill="#152A62"/>
<path d="M340.397 111.133H295.138C292.263 111.133 290.437 108.948 291.059 106.252L296.224 83.8806C296.846 81.1852 299.68 79 302.555 79H347.813C350.688 79 352.515 81.1852 351.892 83.8806L346.727 106.252C346.106 108.948 343.271 111.133 340.397 111.133Z" fill="#FFB7AD" stroke="#152A62" stroke-miterlimit="10"/>
<path d="M328.617 89.3183H303.221C302.486 89.3183 302.02 88.7597 302.179 88.0717L302.509 86.645C302.668 85.9562 303.391 85.3984 304.126 85.3984H329.522C330.256 85.3984 330.722 85.957 330.564 86.645L330.234 88.0717C330.075 88.7605 329.351 89.3183 328.617 89.3183Z" fill="#152A62"/>
<path d="M319.846 95.1554H301.518C300.98 95.1554 300.638 94.7467 300.754 94.2422L300.901 93.6066C301.017 93.1021 301.548 92.6934 302.086 92.6934H320.414C320.952 92.6934 321.294 93.1021 321.177 93.6066L321.031 94.2422C320.914 94.7467 320.384 95.1554 319.846 95.1554Z" fill="#152A62"/>
<path d="M304.601 104.829H299.286C298.748 104.829 298.406 104.421 298.522 103.916L298.669 103.28C298.786 102.776 299.316 102.367 299.854 102.367H305.169C305.707 102.367 306.049 102.776 305.932 103.28L305.786 103.916C305.669 104.421 305.139 104.829 304.601 104.829Z" fill="#152A62"/>
<rect width="9.24633" height="9.24633" rx="2" transform="matrix(1 0 -0.224951 0.97437 336.838 86.3711)" fill="#152A62"/>
<path d="M331.397 149.133H286.138C283.263 149.133 281.437 146.948 282.059 144.252L287.224 121.881C287.846 119.185 290.68 117 293.555 117H338.813C341.688 117 343.515 119.185 342.892 121.881L337.727 144.252C337.106 146.948 334.271 149.133 331.397 149.133Z" fill="white" stroke="#152A62" stroke-miterlimit="10"/>
<path d="M319.617 127.318H294.221C293.486 127.318 293.02 126.76 293.179 126.072L293.509 124.645C293.668 123.956 294.391 123.398 295.126 123.398H320.522C321.256 123.398 321.722 123.957 321.564 124.645L321.234 126.072C321.075 126.761 320.351 127.318 319.617 127.318Z" fill="#152A62"/>
<path d="M310.846 133.155H292.518C291.98 133.155 291.638 132.747 291.754 132.242L291.901 131.607C292.017 131.102 292.548 130.693 293.086 130.693H311.414C311.952 130.693 312.294 131.102 312.177 131.607L312.031 132.242C311.914 132.747 311.384 133.155 310.846 133.155Z" fill="#152A62"/>
<path d="M295.601 142.829H290.286C289.748 142.829 289.406 142.421 289.522 141.916L289.669 141.28C289.786 140.776 290.316 140.367 290.854 140.367H296.169C296.707 140.367 297.049 140.776 296.932 141.28L296.786 141.916C296.669 142.421 296.139 142.829 295.601 142.829Z" fill="#152A62"/>
<rect width="9.24633" height="9.24633" rx="2" transform="matrix(1 0 -0.224951 0.97437 327.838 124.371)" fill="#152A62"/>
</g>
<defs>
<clipPath id="clip0_44890_1187135">
<path d="M0 16C0 7.16344 7.16344 0 16 0H784C792.837 0 800 7.16344 800 16V198C800 206.837 792.837 214 784 214H16C7.16343 214 0 206.837 0 198V16Z" fill="white"/>
</clipPath>
</defs>
</svg>

<svg xmlns="http://www.w3.org/2000/svg" width="800" height="214" fill="none" viewBox="0 0 800 214"><g clip-path="url(#a)"><path fill="#f5f4f9" d="M0 16C0 7.163 7.163 0 16 0h768c8.837 0 16 7.163 16 16v182c0 8.837-7.163 16-16 16H16c-8.837 0-16-7.163-16-16z"/><path fill="#152a62" stroke="#152a62" stroke-linejoin="round" stroke-miterlimit="10" d="m410.62 90.914-9.731-8.28-.003-.622h-1.218c-.716-.01-1.401.538-1.401 1.365v3.695h-9.301c-.946 0-1.713.767-1.713 1.713v7.098c0 .946.767 1.713 1.713 1.713h9.301v3.693c0 .817.667 1.372 1.373 1.378h1.287l.035-.696 9.66-8.22a1.864 1.864 0 0 0-.002-2.837Z"/><path fill="#b49cfb" stroke="#152a62" stroke-linejoin="round" stroke-miterlimit="10" d="M411.879 90.915 401.79 82.33c-.893-.76-2.266-.124-2.266 1.047v3.696h-9.301c-.946 0-1.713.767-1.713 1.713v7.097c0 .947.767 1.714 1.713 1.714h9.301v3.693c0 1.172 1.373 1.807 2.266 1.047l10.089-8.585a1.862 1.862 0 0 0 0-2.837Z"/><path fill="#e3e0fd" stroke="#152a62" stroke-miterlimit="10" d="m423.918 156.174 1.769-2.312.56.278a13.3 13.3 0 0 1 .366-3.278l25.295-105.157c1.994-8.29 9.67-15.01 18.284-15.01h45.72c.586 0 1.154.038 1.709.099l1.628-2.43 6.23 6.23.009.009.129.127-.003.012c2.706 2.754 3.863 6.852 2.76 11.438L503.08 151.337c-1.845 7.67-9.803 13.889-17.775 13.889h-47.126c-3.688 0-6.719-1.342-8.744-3.532z"/><path fill="#f5f4f9" stroke="#152a62" stroke-miterlimit="10" d="M495.685 161.737c-3.064 2.163-6.717 3.486-10.379 3.486H438.18c-3.688 0-6.719-1.341-8.743-3.531l-5.518-5.519 1.769-2.311.559.278a13.3 13.3 0 0 1 .355-3.216l61.208 2.937z"/><path fill="#152a62" stroke="#152a62" stroke-miterlimit="10" d="M432.012 159.055h47.127c7.97 0 15.928-6.218 17.774-13.888l25.294-105.158C524.201 31.719 518.834 25 510.22 25h-44.796c-8.615 0-17.215 6.72-19.209 15.009l-25.294 105.158c-1.846 7.67 3.12 13.888 11.091 13.888Z"/><path fill="#fff" stroke="#152a62" stroke-miterlimit="10" d="M480.388 154.652c5.326 0 10.663-4.173 11.897-9.301L517.58 40.194c.683-2.84.171-5.53-1.442-7.576-1.634-2.074-4.18-3.216-7.169-3.216h-6.157c-1.793 0-3.523 1.354-3.938 3.083-.575 2.389-3.129 4.26-5.815 4.26h-16.641c-1.262 0-2.288-.42-2.89-1.185-.552-.7-.708-1.635-.45-2.706.213-.882.04-1.762-.474-2.415-.519-.66-1.347-1.037-2.272-1.037h-6.158c-5.969 0-11.951 4.675-13.333 10.421l-25.294 105.158c-.612 2.543-.152 4.953 1.293 6.788 1.465 1.86 3.745 2.884 6.421 2.884h47.127z"/><path stroke="#152a62" stroke-linejoin="round" stroke-miterlimit="10" d="m522.176 48.895 2.862 2.733-1.19 5.034-2.863-2.734zM520.148 57.168l2.863 2.734-1.191 5.034-2.862-2.734z"/><path fill="#e3e0fd" d="M461.253 185.709c22.14 0 40.088-1.725 40.088-3.854S483.393 178 461.253 178c-22.139 0-40.087 1.726-40.087 3.855s17.948 3.854 40.087 3.854"/><path fill="#e3e0fd" stroke="#152a62" stroke-miterlimit="10" d="m274.449 156.174 1.768-2.312.561.278a13.3 13.3 0 0 1 .366-3.278l25.295-105.157c1.994-8.29 9.67-15.01 18.284-15.01h45.72c.586 0 1.154.038 1.709.099l1.628-2.43 6.23 6.23.009.009.129.127-.003.012c2.706 2.754 3.863 6.852 2.76 11.438L353.61 151.337c-1.844 7.67-9.802 13.889-17.774 13.889h-47.127c-3.687 0-6.718-1.342-8.743-3.532z"/><path fill="#f5f4f9" stroke="#152a62" stroke-miterlimit="10" d="M346.216 161.737c-3.064 2.163-6.717 3.486-10.379 3.486H288.71c-3.687 0-6.718-1.341-8.742-3.531l-5.518-5.519 1.768-2.311.559.278a13.4 13.4 0 0 1 .355-3.216l61.209 2.937z"/><path fill="#152a62" stroke="#152a62" stroke-miterlimit="10" d="M282.543 159.055h47.126c7.971 0 15.929-6.218 17.775-13.888l25.294-105.158C374.732 31.719 369.365 25 360.751 25h-44.796c-8.615 0-17.215 6.72-19.209 15.009l-25.294 105.158c-1.846 7.67 3.12 13.888 11.091 13.888Z"/><path fill="#fff" stroke="#152a62" stroke-miterlimit="10" d="M330.919 154.652c5.326 0 10.663-4.173 11.897-9.301L368.11 40.194c.683-2.84.172-5.53-1.441-7.576-1.635-2.074-4.181-3.216-7.169-3.216h-6.157c-1.793 0-3.523 1.354-3.939 3.083-.574 2.389-3.128 4.26-5.814 4.26h-16.641c-1.262 0-2.288-.42-2.89-1.185-.553-.7-.708-1.635-.45-2.706.213-.882.04-1.762-.474-2.415-.519-.66-1.347-1.037-2.273-1.037h-6.158c-5.968 0-11.95 4.675-13.332 10.421l-25.295 105.158c-.611 2.543-.151 4.953 1.294 6.788 1.465 1.86 3.745 2.884 6.42 2.884h47.128z"/><path stroke="#152a62" stroke-linejoin="round" stroke-miterlimit="10" d="m372.707 48.895 2.862 2.733-1.19 5.034-2.863-2.734zM370.679 57.168l2.862 2.734-1.19 5.034-2.863-2.734z"/><path fill="#e3e0fd" d="M311.784 185.709c22.14 0 40.088-1.725 40.088-3.854S333.924 178 311.784 178c-22.139 0-40.087 1.726-40.087 3.855s17.948 3.854 40.087 3.854"/><path fill="#e3e0fd" stroke="#152a62" stroke-miterlimit="10" d="m274.382 156.174 1.769-2.312.56.278a13.4 13.4 0 0 1 .367-3.278l25.294-105.157c1.994-8.29 9.671-15.01 18.285-15.01h45.72c.586 0 1.153.038 1.709.099l1.627-2.43 6.23 6.23.01.009.128.127-.002.012c2.706 2.754 3.863 6.852 2.759 11.438l-25.294 105.157c-1.845 7.67-9.802 13.889-17.774 13.889h-47.127c-3.688 0-6.718-1.342-8.744-3.532z"/><path fill="#f5f4f9" stroke="#152a62" stroke-miterlimit="10" d="M346.15 161.737c-3.065 2.163-6.717 3.486-10.379 3.486h-47.127c-3.688 0-6.718-1.341-8.743-3.531l-5.518-5.519 1.769-2.311.559.278a13.3 13.3 0 0 1 .355-3.216l61.209 2.937z"/><path fill="#152a62" stroke="#152a62" stroke-miterlimit="10" d="M282.476 159.055h47.127c7.971 0 15.929-6.218 17.774-13.888l25.295-105.158C374.666 31.719 369.298 25 360.684 25h-44.795c-8.615 0-17.215 6.72-19.209 15.009l-25.295 105.158c-1.846 7.67 3.12 13.888 11.091 13.888Z"/><path fill="#fff" stroke="#152a62" stroke-miterlimit="10" d="M330.853 154.652c5.325 0 10.663-4.173 11.896-9.301l25.295-105.157c.683-2.84.172-5.53-1.442-7.576-1.634-2.074-4.18-3.216-7.169-3.216h-6.156c-1.793 0-3.523 1.354-3.939 3.083-.574 2.389-3.128 4.26-5.815 4.26h-16.64c-1.262 0-2.288-.42-2.891-1.185-.552-.7-.707-1.635-.449-2.706.212-.882.039-1.762-.474-2.415-.52-.66-1.347-1.037-2.273-1.037h-6.158c-5.969 0-11.95 4.675-13.332 10.421l-25.295 105.158c-.612 2.543-.152 4.953 1.293 6.788 1.465 1.86 3.745 2.884 6.421 2.884h47.128z"/><path stroke="#152a62" stroke-linejoin="round" stroke-miterlimit="10" d="m372.64 48.895 2.863 2.733-1.191 5.034-2.862-2.734zM370.613 57.168l2.862 2.734-1.191 5.034-2.862-2.734z"/><path fill="#e3e0fd" d="M311.718 185.709c22.139 0 40.087-1.725 40.087-3.854S333.857 178 311.718 178s-40.088 1.726-40.088 3.855 17.948 3.854 40.088 3.854"/><path fill="#89c8ff" stroke="#152a62" stroke-miterlimit="10" d="M349.673 73.133h-45.258c-2.875 0-4.702-2.185-4.079-4.88l5.165-22.372c.621-2.696 3.456-4.881 6.33-4.881h45.259c2.875 0 4.701 2.185 4.079 4.88l-5.165 22.372c-.622 2.696-3.456 4.881-6.331 4.881Z"/><path fill="#152a62" d="M337.893 51.318h-25.396c-.734 0-1.2-.558-1.041-1.246l.329-1.427c.159-.689.883-1.247 1.617-1.247h25.396c.735 0 1.201.559 1.042 1.247l-.329 1.427c-.159.688-.883 1.246-1.618 1.246M329.122 57.155h-18.328c-.538 0-.88-.408-.763-.913l.146-.635c.117-.505.647-.914 1.185-.914h18.328c.538 0 .88.41.764.914l-.147.635c-.116.505-.647.913-1.185.913M313.877 66.83h-5.315c-.538 0-.88-.41-.763-.914l.146-.636c.117-.504.647-.913 1.185-.913h5.315c.538 0 .88.409.764.913l-.147.636c-.116.505-.647.913-1.185.913"/><rect width="9.246" height="9.246" fill="#152a62" rx="2" transform="matrix(1 0 -.22495 .97437 346.114 48.371)"/><path fill="#ffb7ad" stroke="#152a62" stroke-miterlimit="10" d="M340.397 111.133h-45.259c-2.875 0-4.701-2.185-4.079-4.881l5.165-22.371c.622-2.696 3.456-4.881 6.331-4.881h45.258c2.875 0 4.702 2.185 4.079 4.88l-5.165 22.372c-.621 2.696-3.456 4.881-6.33 4.881Z"/><path fill="#152a62" d="M328.617 89.318h-25.396c-.735 0-1.201-.558-1.042-1.246l.33-1.427c.159-.689.882-1.247 1.617-1.247h25.396c.734 0 1.2.559 1.042 1.247l-.33 1.427c-.159.688-.883 1.246-1.617 1.246M319.846 95.155h-18.328c-.538 0-.88-.408-.764-.913l.147-.635c.116-.505.647-.914 1.185-.914h18.328c.538 0 .88.41.763.914l-.146.635c-.117.505-.647.913-1.185.913M304.601 104.829h-5.315c-.538 0-.88-.408-.764-.913l.147-.636c.117-.504.647-.913 1.185-.913h5.315c.538 0 .88.409.763.913l-.146.636c-.117.505-.647.913-1.185.913"/><rect width="9.246" height="9.246" fill="#152a62" rx="2" transform="matrix(1 0 -.22495 .97437 336.838 86.371)"/><path fill="#fff" stroke="#152a62" stroke-miterlimit="10" d="M331.397 149.133h-45.259c-2.875 0-4.701-2.185-4.079-4.881l5.165-22.371c.622-2.696 3.456-4.881 6.331-4.881h45.258c2.875 0 4.702 2.185 4.079 4.881l-5.165 22.371c-.621 2.696-3.456 4.881-6.33 4.881Z"/><path fill="#152a62" d="M319.617 127.318h-25.396c-.735 0-1.201-.558-1.042-1.246l.33-1.427c.159-.689.882-1.247 1.617-1.247h25.396c.734 0 1.2.559 1.042 1.247l-.33 1.427c-.159.689-.883 1.246-1.617 1.246M310.846 133.155h-18.328c-.538 0-.88-.408-.764-.913l.147-.635c.116-.505.647-.914 1.185-.914h18.328c.538 0 .88.409.763.914l-.146.635c-.117.505-.647.913-1.185.913M295.601 142.829h-5.315c-.538 0-.88-.408-.764-.913l.147-.636c.117-.504.647-.913 1.185-.913h5.315c.538 0 .88.409.763.913l-.146.636c-.117.505-.647.913-1.185.913"/><rect width="9.246" height="9.246" fill="#152a62" rx="2" transform="matrix(1 0 -.22495 .97437 327.838 124.371)"/></g><defs><clipPath id="a"><path fill="#fff" d="M0 16C0 7.163 7.163 0 16 0h768c8.837 0 16 7.163 16 16v182c0 8.837-7.163 16-16 16H16c-8.837 0-16-7.163-16-16z"/></clipPath></defs></svg>
